X:2424
T:Polska från Västergötland
T:Svenska Folkdansar H1 nr 8
O:Västergötland
B:Traditioner av Svenska Folkdansar Häfte 1, nr 8
R:Polska
Z:Nils L
N:Jämför [[Musik/1518|+]]
U:V = wedge
M:3/4
L:1/16
K:Dm
d2fa d'2d'2 c'2c'2 | b2b2 gabg a4 | g2g2 f2f2 e2d2 | {e}Td2^cd e2c2 A4 |
d2fa d'2d'2 =c'2c'2 | b2b2 gabg a4 | g2g2 f2f2 e2d2 | (fed^c) d4 D4 ::
a2a2 g2g2 f2d2 | Td2^cd e2Vc2 A4 | Va2(ab) Vg2(ga) f2d2 | Td2^cd ecec A4 |
d2fa d'2d'2 c'2c'2 | b2b2 gabg a4 | g2g2 f2f2 e2d2 | (fed^c) d4 D4 :|
(:musicend:)
(:music:)
